resources/dark/cdk/cdk.svg

<?xml version="1.0" encoding="UTF-8"?>
<svg width="56px" height="55px" viewBox="0 0 56 55" version="1.1" xmlns="http://www.w3.org/2000/svg" xmlns:xlink="http://www.w3.org/1999/xlink">
    <!-- Generator: Sketch 56.2 (81672) - https://sketch.com -->
    <title>AWS-Cloud-Development-Kit_Icon_64_White</title>
    <desc>Created with Sketch.</desc>
    <g id="Page-1" stroke="none" stroke-width="1" fill="none" fill-rule="evenodd">
        <g id="AWS-Developer-Tools-Product-Icons_White" transform="translate(-216.000000, -85.000000)" fill="#C5C5C5">
            <path d="M272,111.305525 C272,118.234708 267.26625,120.776041 264.445256,121.674806 L263.84572,119.768306 C266.659766,118.872541 270.014783,116.677116 270.014783,111.305525 C270.014783,104.514306 264.456175,102.81875 262.066966,102.404859 C261.533935,102.312883 261.173618,101.808016 261.253027,101.270157 L261.253027,101.270157 C261.016786,98.175968 259.577503,95.9505516 257.390786,95.3067204 C255.574313,94.7728604 253.622844,95.4806748 252.425758,97.1142464 C252.208377,97.4111686 251.841112,97.562129 251.480795,97.5091429 C251.1175,97.455157 250.813762,97.2022234 250.691671,96.8533149 C249.866813,94.503931 248.671712,92.5274493 247.140117,90.9788554 C245.260117,89.0793535 240.102522,84.9944248 232.812805,88.1016099 C228.603152,89.8971391 225.305706,95.0697826 225.305706,99.8765221 C225.305706,100.411382 225.337469,100.95024 225.400996,101.479102 C225.45956,101.976971 225.142918,102.441849 224.66051,102.565817 C222.167077,103.206649 217.985217,105.182131 217.985217,111.221547 C217.985217,111.417496 217.99018,111.609445 218.000106,111.798396 C218.186717,115.686376 221.027563,119.0265 224.910647,119.923265 L224.465959,121.871754 C219.72129,120.775042 216.246167,116.674117 216.016874,111.898369 C216.004963,111.680427 216,111.452486 216,111.221547 C216,104.314358 220.637467,101.767026 223.352252,100.869262 C223.331407,100.538348 223.320489,100.206436 223.320489,99.8765221 C223.320489,94.2340018 227.068579,88.3805368 232.039563,86.2600929 C237.86419,83.7747446 244.03623,85.0114203 248.545651,89.5672256 C249.948207,90.9848538 251.097648,92.7044029 251.974121,94.6948809 C253.642696,93.2822513 255.849265,92.7703856 257.94764,93.3882236 C260.826205,94.2350015 262.752858,96.906301 263.182658,100.594334 C265.998688,101.25716 272,103.580551 272,111.305525 L272,111.305525 Z M260.898665,133.313753 L253.963309,137.199734 L253.963309,128.554002 L260.898665,124.612035 L260.898665,133.313753 Z M243.007888,133.28876 L236.08742,137.276714 L236.08742,128.520011 L243.007888,124.590041 L243.007888,133.28876 Z M235.091834,126.790464 L228.169382,122.905483 L235.103745,119.020502 L241.971604,122.882489 L235.091834,126.790464 Z M227.121187,124.606037 L234.102203,128.524009 L234.102203,137.281713 L227.121187,133.28676 L227.121187,124.606037 Z M244.029282,104.053427 L250.911037,107.898418 L244.000496,111.763405 L237.144549,107.918413 L244.029282,104.053427 Z M246.032366,122.884488 L252.954819,119.004506 L259.86536,122.903483 L252.9707,126.822456 L246.032366,122.884488 Z M244.993105,124.589041 L251.978092,128.554002 L251.978092,137.199734 L244.993105,133.280762 L244.993105,124.589041 Z M251.964195,117.27196 L244.993105,121.177936 L244.993105,113.494951 L251.964195,109.596973 L251.964195,117.27196 Z M236.097347,109.618967 L243.007888,113.493951 L243.007888,121.174937 L236.097347,117.288956 L236.097347,109.618967 Z M262.391549,122.036711 C262.386586,122.033712 262.38063,122.032712 262.375667,122.029713 L262.37666,122.027713 L253.949412,117.27396 L253.949412,107.898418 C253.949412,107.543511 253.763795,107.216597 253.460056,107.036644 C253.452115,107.032645 253.445167,107.030646 253.437226,107.026647 L253.439212,107.023648 L244.510697,102.035956 C244.208944,101.869 243.843664,101.869 243.545882,102.036955 L234.62233,107.045642 L234.623323,107.047641 C234.616374,107.05164 234.608434,107.05264 234.601485,107.056639 C234.29874,107.236592 234.112129,107.564506 234.112129,107.918413 L234.112129,117.286956 L225.64617,122.030712 L225.648156,122.032712 C225.640215,122.036711 225.632274,122.03871 225.625326,122.042709 C225.32258,122.221662 225.13597,122.550576 225.13597,122.904483 L225.13597,133.868608 C225.13597,134.228514 225.327543,134.560426 225.63823,134.73738 L234.596522,139.865035 L234.604463,139.870034 L234.604463,139.869034 C234.757325,139.956012 234.926068,140 235.094812,140 C235.264548,140 235.435277,139.956012 235.588138,139.868035 L244.007445,135.016307 L252.488293,139.774059 L252.489285,139.77106 C252.639169,139.855038 252.803942,139.900026 252.9707,139.900026 C253.136466,139.900026 253.303224,139.858037 253.453108,139.774059 L262.374674,134.77537 C262.689331,134.598417 262.883883,134.264504 262.883883,133.901599 L262.883883,122.900484 C262.883883,122.544578 262.697272,122.216664 262.391549,122.036711 L262.391549,122.036711 Z" id="AWS-Cloud-Development-Kit_Icon_64_White"></path>
        </g>
    </g>
</svg>

<?xml version="1.0" encoding="UTF-8"?>
<svg width="17" height="16" viewBox="0 0 17 16" version="1.1" xmlns="http://www.w3.org/2000/svg" xmlns:svg="http://www.w3.org/2000/svg">
  <g stroke="none" stroke-width="1" fill="none" fill-rule="evenodd" transform="matrix(0.30357137,0,0,0.2909092,3.0357137e-6,-4.7053074e-8)">
    <g transform="translate(-216,-85)" fill="#C5C5C5">
      <path d="m 272,111.30553 c 0,6.92918 -4.73375,9.47051 -7.55474,10.36928 l -0.59954,-1.9065 c 2.81405,-0.89577 6.16906,-3.09119 6.16906,-8.46278 0,-6.79122 -5.55861,-8.48678 -7.94781,-8.90067 -0.53304,-0.092 -0.89335,-0.59684 -0.81394,-1.1347 v 0 c -0.23624,-3.094192 -1.67553,-5.319608 -3.86224,-5.96344 -1.81648,-0.53386 -3.76795,0.173955 -4.96503,1.807526 -0.21738,0.296923 -0.58465,0.447883 -0.94497,0.394897 -0.36329,-0.05399 -0.66703,-0.30692 -0.78912,-0.655828 -0.82486,-2.349384 -2.01996,-4.325866 -3.55155,-5.87446 -1.88,-1.899502 -7.0376,-5.98443 -14.32732,-2.877245 -4.20965,1.795529 -7.50709,6.968173 -7.50709,11.774912 0,0.534858 0.0318,1.073718 0.0953,1.602578 0.0586,0.49787 -0.25808,0.96275 -0.74049,1.08672 -2.49343,0.64083 -6.67529,2.61631 -6.67529,8.65573 0,0.19595 0.005,0.38789 0.0149,0.57685 0.18661,3.88798 3.02745,7.2281 6.91054,8.12487 l -0.44469,1.94848 c -4.74467,-1.09671 -8.21979,-5.19763 -8.44909,-9.97338 -0.0119,-0.21794 -0.0169,-0.44588 -0.0169,-0.67682 0,-6.90719 4.63747,-9.45452 7.35225,-10.35229 -0.0208,-0.33091 -0.0318,-0.66282 -0.0318,-0.992738 0,-5.64252 3.74809,-11.495985 8.71907,-13.616429 5.82463,-2.485348 11.99667,-1.248673 16.50609,3.307133 1.40256,1.417628 2.552,3.137177 3.42847,5.127655 1.66858,-1.41263 3.87514,-1.924495 5.97352,-1.306657 2.87857,0.846777 4.80522,3.518077 5.23502,7.206106 2.81603,0.66283 8.81734,2.98622 8.81734,10.7112 z m -11.10134,22.00822 -6.93535,3.88598 V 128.554 l 6.93535,-3.94196 z m -17.89077,-0.025 -6.92047,3.98795 V 128.52 l 6.92047,-3.92997 z m -7.91606,-6.4983 -6.92245,-3.88498 6.93436,-3.88498 6.86786,3.86199 z m -7.97064,-2.18442 6.98101,3.91797 v 8.7577 l -6.98101,-3.99495 z m 16.90809,-20.55261 6.88176,3.84499 -6.91054,3.86499 -6.85595,-3.845 z m 2.00309,18.83106 6.92245,-3.87998 6.91054,3.89897 -6.89466,3.91898 z m -1.03926,1.70455 6.98498,3.96496 v 8.64573 l -6.98498,-3.91897 z m 6.97108,-7.31708 -6.97108,3.90598 v -7.68299 l 6.97108,-3.89798 z m -15.86684,-7.65299 6.91054,3.87498 v 7.68099 l -6.91054,-3.88598 z m 26.2942,12.41774 c -0.005,-0.003 -0.0109,-0.004 -0.0159,-0.007 l 9.9e-4,-0.002 -8.42725,-4.75375 v -9.37554 c 0,-0.35491 -0.18562,-0.68182 -0.48935,-0.86178 -0.008,-0.004 -0.0149,-0.006 -0.0228,-0.01 l 0.002,-0.003 -8.92851,-4.98769 c -0.30176,-0.16696 -0.66704,-0.16696 -0.96482,0.001 l -8.92355,5.00868 9.9e-4,0.002 c -0.007,0.004 -0.0149,0.005 -0.0218,0.009 -0.30274,0.17995 -0.48935,0.50787 -0.48935,0.86177 v 9.36855 l -8.46596,4.74375 0.002,0.002 c -0.008,0.004 -0.0159,0.006 -0.0228,0.01 -0.30275,0.17895 -0.48936,0.50787 -0.48936,0.86177 v 10.96413 c 0,0.3599 0.19157,0.69182 0.50226,0.86877 l 8.95829,5.12765 0.008,0.005 v -0.001 c 0.15286,0.087 0.32161,0.13097 0.49035,0.13097 0.16974,0 0.34047,-0.044 0.49333,-0.13197 l 8.4193,-4.85172 8.48085,4.75775 9.9e-4,-0.003 c 0.14989,0.084 0.31466,0.12897 0.48142,0.12897 0.16577,0 0.33252,-0.042 0.48241,-0.12597 l 8.92156,-4.99869 c 0.31466,-0.17695 0.50921,-0.51087 0.50921,-0.87377 v -11.00112 c 0,-0.3559 -0.18661,-0.68382 -0.49233,-0.86377 z" />
    </g>
  </g>
</svg>
